X:1
T:Wednesday Night Waltz
M:3/4
L:1/8
K:G
D||"G" B6|"Gb" _B4B2|"G" =B6|"G7" G4G2|"C"G6|"C#dim" F4E2|
"G" D6|"D7" DE FG A_B|"G" =B4B2|"Gb" _B4B2|"G" =B6|"Em" G2E2|
"A7" A4E2|"A7" A4B2|"D7" A3 G FE|DE FG A_B|
"G" B6|"Gb" _B4B2|"G" =B4|"G7" G4 G2|"C" G4G2|"C#dim" A2G2E2|
"G" D6|"E7" B2 dc|"A7" B3A G2|"D7" A3G F2|"G" G2D2B,2|G,4||
